src/assets/img/deposit.svg

<?xml version="1.0" encoding="UTF-8"?>
<svg width="18px" height="18px" viewBox="0 0 18 18" version="1.1" xmlns="http://www.w3.org/2000/svg" xmlns:xlink="http://www.w3.org/1999/xlink">
    <title>Icon / Withdrawal</title>
    <defs>
        <filter id="filter-1">
            <feColorMatrix in="SourceGraphic" type="matrix" values="0 0 0 0 1.000000 0 0 0 0 1.000000 0 0 0 0 1.000000 0 0 0 1.000000 0"></feColorMatrix>
        </filter>
        <path d="M21,20.0002 C21,19.4472 20.553,19.0002 20,19.0002 L4,19.0002 C3.447,19.0002 3,19.4472 3,20.0002 C3,20.5532 3.447,21.0002 4,21.0002 L20,21.0002 C20.553,21.0002 21,20.5532 21,20.0002 M18,9.0002 C18,12.3132 15.313,15.0002 12,15.0002 C8.687,15.0002 6,12.3132 6,9.0002 C6,5.6872 8.687,3.0002 12,3.0002 C15.313,3.0002 18,5.6872 18,9.0002" id="path-2"></path>
    </defs>
    <g id="Symbols" stroke="none" stroke-width="1" fill="none" fill-rule="evenodd">
        <g id="Activity-/-Deposit-Withdrawal-/-Selected" transform="translate(-19.000000, -23.000000)">
            <g id="Icon-/-Withdrawal" transform="translate(16.000000, 20.000000)" filter="url(#filter-1)">
                <g>
                    <mask id="mask-3" fill="white">
                        <use xlink:href="#path-2"></use>
                    </mask>
                    <use id="Mask" fill="#000000" xlink:href="#path-2"></use>
                    <rect id="Rectangle" fill="#000000" mask="url(#mask-3)" x="0" y="0" width="24" height="24"></rect>
                </g>
            </g>
        </g>
    </g>
</svg>

<svg height="18" viewBox="0 0 18 18" width="18" xmlns="http://www.w3.org/2000/svg" xmlns:xlink="http://www.w3.org/1999/xlink"><defs><filter id="a"><feColorMatrix in="SourceGraphic" type="matrix" values="0 0 0 0 1.000000 0 0 0 0 1.000000 0 0 0 0 1.000000 0 0 0 1.000000 0"/></filter><path id="b" d="m21 20.0002c0-.553-.447-1-1-1h-16c-.553 0-1 .447-1 1s.447 1 1 1h16c.553 0 1-.447 1-1m-3-11c0 3.313-2.687 6-6 6s-6-2.687-6-6 2.687-6 6-6 6 2.687 6 6"/><mask id="c" fill="#fff"><use fill="#fff" fill-rule="evenodd" xlink:href="#b"/></mask></defs><g fill-rule="evenodd" filter="url(#a)" transform="translate(-3 -3)"><use xlink:href="#b"/><path d="m0 0h24v24h-24z" mask="url(#c)"/></g></svg>
